public/library/bloom-bot-icon-dark.svg

<svg width="211" height="208" viewBox="0 0 211 208" fill="none" xmlns="http://www.w3.org/2000/svg">
<g clip-path="url(#clip0_142_5617)">
<path d="M191.698 166.45C186.077 169.818 179.591 171.478 173.04 171.478C166.49 171.478 160.932 176.891 160.932 183.55V206.283C127.637 213.541 99.4637 196.975 86.9271 171.941C77.1764 152.476 76.8764 127.891 90.9559 105.392C91.5845 123.525 106.271 156.714 137.588 163.601C139.059 163.907 140.516 164.142 141.959 164.306C158.661 166.257 172.869 159.377 172.669 157.063C172.176 155.076 163.232 155.126 156.253 152.939C150.774 151.23 146.503 148.146 148.453 141.643C152.732 135.091 160.782 136.174 169.126 134.557C179.833 132.47 190.998 125.961 195.242 93.2134C216.807 117.122 216.786 151.643 191.691 166.45H191.698Z" fill="white"/>
<path d="M36.7239 120.049C35.6096 125.469 35.8667 129.358 36.8882 129.828C37.4525 130.091 38.2597 129.522 39.2598 128.453C43.2315 124.28 50.282 112.478 57.8825 113.953C71.2977 117.841 57.7182 132.705 56.6253 144.862C56.2967 148.267 56.7896 152.277 58.8826 156.885C61.9613 163.65 68.5046 171.755 81.0555 181.256C49.5034 187.915 19.5228 170.644 19.2227 141.572C19.2227 141.373 19.2156 141.166 19.2156 140.967C19.2156 134.642 20.9943 128.439 24.1802 122.948C27.5233 117.179 25.5374 109.801 19.7442 106.467L0 95.0935C9.79352 64.4258 35.8524 48.4012 62.3757 48.2303C85.6344 48.0878 109.257 60.117 122.615 85.1154C106.55 76.5903 70.3762 72.6732 48.739 96.2686C41.7171 104.089 38.124 113.255 36.7168 120.042L36.7239 120.049Z" fill="white"/>
<path d="M176.098 102.778C163.654 115.356 145.76 123.311 124.394 122.585C139.831 112.977 161.318 83.7055 151.639 53.223C151.217 51.9553 150.767 50.7303 150.26 49.5409C143.674 33.8652 130.352 24.8487 128.43 26.2019C127.051 27.1705 130.094 32.7257 132.066 38.751C133.695 43.7008 134.595 48.9711 131.723 52.2615C121.644 61.9119 115.508 42.7465 105.514 35.7312C104.443 34.9692 103.243 34.2712 101.878 33.6729H101.871C94.4348 30.3754 82.3126 29.9837 61.6826 38.6228C71.669 8.05486 101.664 -9.19479 127.066 5.08496C132.802 8.24716 137.488 13.0118 140.767 18.6667C144.11 24.4356 151.51 26.4227 157.296 23.0895L177.048 11.7298C203.499 40.6953 199.07 79.5889 176.09 102.778H176.098Z" fill="white"/>
<path d="M23.6304 29.2075H27.1378L26.7806 36.18H29.2808L29.6379 29.2075H33.1453L33.2453 27.1421H23.7375L23.6304 29.2075Z" fill="white"/>
<path d="M44.1246 27.1421L40.8387 33.2671L38.2671 27.1421H34.9311L34.4668 36.18H36.8812L37.1813 30.2687L39.6314 36.18H41.5959L44.6461 30.2687L44.346 36.18H46.7962L47.2605 27.1421H44.1246Z" fill="white"/>
</g>
<defs>
<clipPath id="clip0_142_5617">
<rect width="211" height="208" fill="white"/>
</clipPath>
</defs>
</svg>

<svg xmlns="http://www.w3.org/2000/svg" width="211" height="208" fill="none" viewBox="0 0 211 208"><g fill="#fff" clip-path="url(#a)"><path d="M191.698 166.45c-5.621 3.368-12.107 5.028-18.658 5.028-6.55 0-12.108 5.413-12.108 12.072v22.733c-33.295 7.258-61.468-9.308-74.005-34.342-9.75-19.465-10.05-44.05 4.029-66.549.629 18.133 15.315 51.322 46.632 58.209q2.207.459 4.371.705c16.702 1.951 30.91-4.929 30.71-7.243-.493-1.987-9.437-1.937-16.416-4.124-5.479-1.709-9.75-4.793-7.8-11.296 4.279-6.552 12.329-5.469 20.673-7.086 10.707-2.087 21.872-8.596 26.116-41.344 21.565 23.909 21.544 58.43-3.551 73.237z"/><path d="M36.724 120.049c-1.114 5.42-.857 9.309.164 9.779.565.263 1.372-.306 2.372-1.375 3.971-4.173 11.022-15.975 18.623-14.5 13.415 3.888-.165 18.752-1.258 30.909-.328 3.405.165 7.415 2.258 12.023 3.078 6.765 9.622 14.87 22.172 24.371-31.552 6.659-61.532-10.612-61.832-39.684 0-.199-.007-.406-.007-.605 0-6.325 1.778-12.528 4.964-18.019 3.343-5.769 1.357-13.147-4.436-16.481L0 95.094C9.794 64.426 35.852 48.4 62.376 48.23c23.258-.142 46.881 11.887 60.239 36.885C106.55 76.59 70.376 72.673 48.739 96.27c-7.022 7.82-10.615 16.986-12.022 23.773z"/><path d="M176.098 102.778c-12.444 12.578-30.338 20.533-51.704 19.807 15.437-9.608 36.924-38.88 27.245-69.362a48 48 0 0 0-1.379-3.682c-6.586-15.676-19.908-24.692-21.83-23.34-1.379.97 1.664 6.525 3.636 12.55 1.629 4.95 2.529 10.22-.343 13.51-10.079 9.65-16.215-9.515-26.209-16.53a20.3 20.3 0 0 0-3.636-2.058h-.007c-7.436-3.298-19.558-3.69-40.188 4.95 9.986-30.568 39.981-47.818 65.383-33.538 5.736 3.162 10.422 7.927 13.701 13.582 3.343 5.769 10.743 7.756 16.529 4.422l19.752-11.36c26.451 28.966 22.022 67.86-.958 91.049zM23.63 29.208h3.508l-.357 6.972h2.5l.357-6.972h3.507l.1-2.066h-9.507zM44.125 27.142l-3.286 6.125-2.572-6.125h-3.336l-.464 9.038h2.414l.3-5.911 2.45 5.911h1.965l3.05-5.911-.3 5.911h2.45l.465-9.038z"/></g><defs><clipPath id="a"><path fill="#fff" d="M0 0h211v208H0z"/></clipPath></defs></svg>
